images_files/environmentVG/mesozoicEarth.svg

<svg xmlns="http://www.w3.org/2000/svg" width="1440" height="1487" fill="none" xmlns:v="https://vecta.io/nano"><style><![CDATA[.B{fill:#8cc0ce}.C{color-interpolation-filters:sRGB}.D{flood-opacity:0}]]></style><g filter="url(#A)"><circle cx="723.5" cy="739.5" r="739.5" transform="rotate(180 723.5 739.5)" fill="#164267"/></g><g filter="url(#B)" class="B"><path d="M144.667 744.007l-35-60.61V566.84l-30.334-13.987L63 529.542v74.596h30.333v65.272l28 74.597h23.334z"/><path d="M217 744.007h133 735l-21-20.981-21-53.616-21-46.623-30.333-32.635L1064 534.204l81.67 18.649 91-62.94 44.33-81.59L889 23.686S842.333 2.705 753.667.374 602 7.368 602 7.368l14 51.285 91 13.987 67.667 41.961 11.666 34.967-11.666 37.298L742 161.223l-49-20.981-53.667-11.655-32.666 11.655L497 221.832l-7-34.967h-37.333l56-37.298 14-51.285H581l11.667-25.642h-70L602 7.368 490 63.315V114.6l-53.667 46.623-42-20.981-25.666 9.325L336 214.839l32.667 25.642 18.666 37.298-84 146.862-46.666 109.563L231 529.542l14-95.577 25.667-100.238h-23.334l-49 90.914v104.901L217 622.787l-18.667 18.65L217 669.41v74.597z"/><path d="M1208.67 618.125L1162 632.112l-67.67 4.662 14 53.616 60.67 25.643L1199.33 751l9.34-132.875z"/></g><g filter="url(#C)"><path d="M338.362 744l-11.67-20.981h-42.013L245 690.383l2.334-107.235 53.683-13.987 58.352 20.98c1.867 0 11.67-21.757 16.338-32.636l-23.34-41.962 23.34-46.623-7.002-60.611 70.022-81.592 11.67-67.604 72.356-18.65 58.351-46.624h37.345l42.013-20.98h53.683l-9.336 32.636-58.351 34.968-21.007 32.637 51.349-6.994 79.358-25.643 42.013-4.662 21.007-23.312 11.67 27.974 14.004 51.286 18.673 53.618 7.002 44.292 18.673-9.325V280.093l37.344-27.974 53.684 20.981v-60.611l-65.354 11.656-44.347-58.28-25.675-20.981-39.678 20.981-7.003-55.949 39.679-20.98-23.34-30.305 23.34-23.312L849.521 19s135.375 2.331 275.419 97.91S1321 305.736 1321 305.736l-11.67 95.579-35.01 27.974h-49.02l-25.67-58.279-44.35-16.319-11.67 34.968 42.01 27.974 14.01 51.287-56.02 46.623-37.34 11.656-102.7 13.987-23.342 60.611-35.011 65.274v30.305l23.34 11.656L952.219 744H338.362z" fill="#537152"/><path d="M1134.28 667.071h-9.34l9.34 16.318 39.67 20.981 11.67-6.994-11.67-18.649-39.67-11.656z" fill="#537152"/></g><defs><filter id="A" x="-20" y="0" width="1487" height="1487" filterUnits="userSpaceOnUse" class="C"><feFlood result="A" class="D"/><feColorMatrix in="SourceAlpha" values="0 0 0 0 0 0 0 0 0 0 0 0 0 0 0 0 0 0 127 0" result="B"/><feOffset dy="4"/><feGaussianBlur stdDeviation="2"/><feComposite in2="B" operator="out"/><feColorMatrix values="0 0 0 0 0 0 0 0 0 0 0 0 0 0 0 0 0 0 0.25 0"/><feBlend in2="A"/><feBlend in="SourceGraphic"/></filter><filter id="B" x="59" y="0" width="1226" height="759" filterUnits="userSpaceOnUse" class="C"><feFlood result="A" class="D"/><feColorMatrix in="SourceAlpha" values="0 0 0 0 0 0 0 0 0 0 0 0 0 0 0 0 0 0 127 0" result="B"/><feOffset dy="4"/><feGaussianBlur stdDeviation="2"/><feComposite in2="B" operator="out"/><feColorMatrix values="0 0 0 0 0 0 0 0 0 0 0 0 0 0 0 0 0 0 0.25 0"/><feBlend in2="A"/><feBlend in="SourceGraphic" result="D"/><feColorMatrix in="SourceAlpha" values="0 0 0 0 0 0 0 0 0 0 0 0 0 0 0 0 0 0 127 0" result="B"/><feOffset dy="4"/><feGaussianBlur stdDeviation="2"/><feComposite in2="B" operator="arithmetic" k2="-1" k3="1"/><feColorMatrix values="0 0 0 0 0 0 0 0 0 0 0 0 0 0 0 0 0 0 0.25 0"/><feBlend in2="D"/></filter><filter id="C" x="241" y="19" width="1084" height="733" filterUnits="userSpaceOnUse" class="C"><feFlood result="A" class="D"/><feColorMatrix in="SourceAlpha" values="0 0 0 0 0 0 0 0 0 0 0 0 0 0 0 0 0 0 127 0" result="B"/><feOffset dy="4"/><feGaussianBlur stdDeviation="2"/><feComposite in2="B" operator="out"/><feColorMatrix values="0 0 0 0 0 0 0 0 0 0 0 0 0 0 0 0 0 0 0.25 0"/><feBlend in2="A" result="C"/><feColorMatrix in="SourceAlpha" values="0 0 0 0 0 0 0 0 0 0 0 0 0 0 0 0 0 0 127 0" result="B"/><feOffset dy="4"/><feGaussianBlur stdDeviation="2"/><feComposite in2="B" operator="out"/><feColorMatrix values="0 0 0 0 0 0 0 0 0 0 0 0 0 0 0 0 0 0 0.25 0"/><feBlend in2="C"/><feBlend in="SourceGraphic"/></filter></defs></svg>

<svg width="1440" height="1487" viewBox="0 0 1440 1487" fill="none" xmlns="http://www.w3.org/2000/svg">
<g filter="url(#filter0_d_112_569)">
<circle cx="723.5" cy="739.5" r="739.5" transform="rotate(180 723.5 739.5)" fill="#164267"/>
</g>
<g filter="url(#filter1_di_112_569)">
<path d="M144.667 744.007L109.667 683.397V566.84L79.3333 552.853L63 529.542V604.138H93.3333V669.41L121.333 744.007H144.667Z" fill="#8CC0CE"/>
<path d="M217 744.007H350H1085L1064 723.026L1043 669.41L1022 622.787L991.667 590.152L1064 534.204L1145.67 552.853L1236.67 489.913L1281 408.323L889 23.6855C889 23.6855 842.333 2.70527 753.667 0.374133C665 -1.957 602 7.36754 602 7.36754L616 58.6525L707 72.6394L774.667 114.6L786.333 149.567L774.667 186.865L742 161.223L693 140.242L639.333 128.587L606.667 140.242L497 221.832L490 186.865H452.667L508.667 149.567L522.667 98.2819H581L592.667 72.6394H522.667L602 7.36754L490 63.3148V114.6L436.333 161.223L394.333 140.242L368.667 149.567L336 214.839L368.667 240.481L387.333 277.779L303.333 424.641L256.667 534.204L231 529.542L245 433.965L270.667 333.727H247.333L198.333 424.641V529.542L217 622.787L198.333 641.437L217 669.41V744.007Z" fill="#8CC0CE"/>
<path d="M1208.67 618.125L1162 632.112L1094.33 636.774L1108.33 690.39L1169 716.033L1199.33 751L1208.67 618.125Z" fill="#8CC0CE"/>
</g>
<g filter="url(#filter2_dd_112_569)">
<path d="M338.362 744L326.692 723.019H284.679L245 690.383L247.334 583.148L301.017 569.161C319.69 576.154 357.502 590.141 359.369 590.141C361.236 590.141 371.039 568.384 375.707 557.505L352.367 515.543L375.707 468.92L368.705 408.309L438.727 326.717L450.397 259.113L522.753 240.463L581.104 193.839H618.449L660.462 172.859H714.145L704.809 205.495L646.458 240.463L625.451 273.1L676.8 266.106L756.158 240.463L798.171 235.801L819.178 212.489L830.848 240.463L844.852 291.749L863.525 345.367L870.527 389.659L889.2 380.334V280.093L926.544 252.119L980.228 273.1V212.489L914.874 224.145L870.527 165.865L844.852 144.884L805.174 165.865L798.171 109.916L837.85 88.9357L814.51 58.6302L837.85 35.3183L849.521 19C849.521 19 984.896 21.3312 1124.94 116.91C1264.98 212.489 1321 305.736 1321 305.736L1309.33 401.315L1274.32 429.289H1225.3L1199.63 371.01L1155.28 354.691L1143.61 389.659L1185.62 417.633L1199.63 468.92L1143.61 515.543L1106.27 527.199L1003.57 541.186L980.228 601.797L945.217 667.071V697.376L968.557 709.032L952.219 744H338.362Z" fill="#537152"/>
<path d="M1134.28 667.071H1124.94L1134.28 683.389L1173.95 704.37L1185.62 697.376L1173.95 678.727L1134.28 667.071Z" fill="#537152"/>
</g>
<defs>
<filter id="filter0_d_112_569" x="-20" y="0" width="1487" height="1487" filterUnits="userSpaceOnUse" color-interpolation-filters="sRGB">
<feFlood flood-opacity="0" result="BackgroundImageFix"/>
<feColorMatrix in="SourceAlpha" type="matrix" values="0 0 0 0 0 0 0 0 0 0 0 0 0 0 0 0 0 0 127 0" result="hardAlpha"/>
<feOffset dy="4"/>
<feGaussianBlur stdDeviation="2"/>
<feComposite in2="hardAlpha" operator="out"/>
<feColorMatrix type="matrix" values="0 0 0 0 0 0 0 0 0 0 0 0 0 0 0 0 0 0 0.25 0"/>
<feBlend mode="normal" in2="BackgroundImageFix" result="effect1_dropShadow_112_569"/>
<feBlend mode="normal" in="SourceGraphic" in2="effect1_dropShadow_112_569" result="shape"/>
</filter>
<filter id="filter1_di_112_569" x="59" y="0" width="1226" height="759" filterUnits="userSpaceOnUse" color-interpolation-filters="sRGB">
<feFlood flood-opacity="0" result="BackgroundImageFix"/>
<feColorMatrix in="SourceAlpha" type="matrix" values="0 0 0 0 0 0 0 0 0 0 0 0 0 0 0 0 0 0 127 0" result="hardAlpha"/>
<feOffset dy="4"/>
<feGaussianBlur stdDeviation="2"/>
<feComposite in2="hardAlpha" operator="out"/>
<feColorMatrix type="matrix" values="0 0 0 0 0 0 0 0 0 0 0 0 0 0 0 0 0 0 0.25 0"/>
<feBlend mode="normal" in2="BackgroundImageFix" result="effect1_dropShadow_112_569"/>
<feBlend mode="normal" in="SourceGraphic" in2="effect1_dropShadow_112_569" result="shape"/>
<feColorMatrix in="SourceAlpha" type="matrix" values="0 0 0 0 0 0 0 0 0 0 0 0 0 0 0 0 0 0 127 0" result="hardAlpha"/>
<feOffset dy="4"/>
<feGaussianBlur stdDeviation="2"/>
<feComposite in2="hardAlpha" operator="arithmetic" k2="-1" k3="1"/>
<feColorMatrix type="matrix" values="0 0 0 0 0 0 0 0 0 0 0 0 0 0 0 0 0 0 0.25 0"/>
<feBlend mode="normal" in2="shape" result="effect2_innerShadow_112_569"/>
</filter>
<filter id="filter2_dd_112_569" x="241" y="19" width="1084" height="733" filterUnits="userSpaceOnUse" color-interpolation-filters="sRGB">
<feFlood flood-opacity="0" result="BackgroundImageFix"/>
<feColorMatrix in="SourceAlpha" type="matrix" values="0 0 0 0 0 0 0 0 0 0 0 0 0 0 0 0 0 0 127 0" result="hardAlpha"/>
<feOffset dy="4"/>
<feGaussianBlur stdDeviation="2"/>
<feComposite in2="hardAlpha" operator="out"/>
<feColorMatrix type="matrix" values="0 0 0 0 0 0 0 0 0 0 0 0 0 0 0 0 0 0 0.25 0"/>
<feBlend mode="normal" in2="BackgroundImageFix" result="effect1_dropShadow_112_569"/>
<feColorMatrix in="SourceAlpha" type="matrix" values="0 0 0 0 0 0 0 0 0 0 0 0 0 0 0 0 0 0 127 0" result="hardAlpha"/>
<feOffset dy="4"/>
<feGaussianBlur stdDeviation="2"/>
<feComposite in2="hardAlpha" operator="out"/>
<feColorMatrix type="matrix" values="0 0 0 0 0 0 0 0 0 0 0 0 0 0 0 0 0 0 0.25 0"/>
<feBlend mode="normal" in2="effect1_dropShadow_112_569" result="effect2_dropShadow_112_569"/>
<feBlend mode="normal" in="SourceGraphic" in2="effect2_dropShadow_112_569" result="shape"/>
</filter>
</defs>
</svg>
